X: 8971
T: Cutting Bracken
R: strathspey
M: 4/4
K: Aminor
A2 a2 g<e g2|e>dBA GAB<G|A2 a2 g<e g2|e>dB<e A2 A2|
A2 a2 g<e g2|e>dBA GAB<G|A2 a2 g<e g2|e>dB<e A2 A2||
e>dBA GAB<G|e>dBA B<d d2|e>dBA GAB<G|edB<e A2A2|
e>dBA GAB<G|e>dBA B<d d2|e>dBA GAB<G|edB<e A2A2||

